docs/svg/logos/jetbrains.svg

<svg id="Layer_1" data-name="Layer 1" xmlns="http://www.w3.org/2000/svg" xmlns:xlink="http://www.w3.org/1999/xlink" viewBox="0 0 120.80108 130.89788">
  <defs>
    <radialGradient id="radial-gradient" cx="113.6915" cy="68.82519" r="98.86049" gradientUnits="userSpaceOnUse">
      <stop offset="0.04518" stop-color="#f4793b"/>
      <stop offset="1" stop-color="#fff33e"/>
    </radialGradient>
    <radialGradient id="radial-gradient-2" cx="9.3632" cy="41.04936" r="49.6767" gradientUnits="userSpaceOnUse">
      <stop offset="0.25818" stop-color="#ee3d85"/>
      <stop offset="1" stop-color="#7b5aa6"/>
    </radialGradient>
    <linearGradient id="linear-gradient" x1="11.42378" y1="37.79237" x2="39.91594" y2="13.74468" gradientUnits="userSpaceOnUse">
      <stop offset="0" stop-color="#ee3d85"/>
      <stop offset="1" stop-color="#f05872"/>
    </linearGradient>
    <radialGradient id="radial-gradient-3" cx="50.06826" cy="9.71604" r="88.22011" gradientUnits="userSpaceOnUse">
      <stop offset="0.1343" stop-color="#f05872"/>
      <stop offset="1" stop-color="#f4793b"/>
    </radialGradient>
  </defs>
  <title>logo-4</title>
  <g>
    <g>
      <path d="M118.69638,72.62406a4.67136,4.67136,0,0,0-4.74706-8.02629L27.70209,111.88852a10.19806,10.19806,0,1,0,11.16121,17.038Z" opacity="0.99688" fill="url(#radial-gradient)"/>
      <path d="M18.27209,29.0161A11.24043,11.24043,0,1,0,6.77615,48.10142l46.204,19.08234a4.32591,4.32591,0,0,0,4.60033-7.21184Z" fill="url(#radial-gradient-2)"/>
      <path d="M52.2019,0.40458a8.86652,8.86652,0,0,0-7.40664.98355L4.699,28.59941A11.24106,11.24106,0,1,0,18.60258,46.23878L55.15529,15.79451A8.888,8.888,0,0,0,52.2019.40458Z" opacity="0.99891" fill="url(#linear-gradient)"/>
      <path d="M55.81058,2.57282A8.88722,8.88722,0,1,0,43.66406,15.54018l69.6015,56.90322a4.66421,4.66421,0,0,0,6.36265-6.76831Z" opacity="0.99688" fill="url(#radial-gradient-3)"/>
    </g>
    <rect x="36.90538" y="36.21151" width="51.25302" height="51.25303"/>
    <rect x="41.32627" y="77.85458" width="19.21988" height="3.20332" fill="#fff"/>
    <g>
      <path d="M44.0459,51.115a3.14761,3.14761,0,0,0,2.29126-.84729,3.10351,3.10351,0,0,0,.82343-2.351V42.61814H44.85742v5.28668a0.97359,0.97359,0,0,1-.94281,1.16943,1.6911,1.6911,0,0,1-1.31274-.77563l-1.49164,1.4082A3.41138,3.41138,0,0,0,44.0459,51.115Z" fill="#fff"/>
      <polygon points="54.476 49.003 49.989 49.003 49.989 47.678 53.998 47.678 53.998 45.852 49.989 45.852 49.989 44.575 54.416 44.575 54.416 42.618 47.697 42.618 47.697 50.972 54.476 50.972 54.476 49.003" fill="#fff"/>
      <polygon points="57.443 50.972 59.758 50.972 59.758 44.647 62.264 44.647 62.264 42.618 54.948 42.618 54.948 44.647 57.443 44.647 57.443 50.972" fill="#fff"/>
      <path d="M47.13666,56.91013a1.93348,1.93348,0,0,0,1.28888-1.86163V55.02463a1.88011,1.88011,0,0,0-.537-1.36047,3.12872,3.12872,0,0,0-2.27942-.73993H41.325v8.35364h4.308c1.99292,0,3.16241-.87115,3.16241-2.30316V58.95078A2.02716,2.02716,0,0,0,47.13666,56.91013Zm-3.55621-2.12421h1.51563c0.68024,0,1.05011.25061,1.05011,0.71606v0.0238c0,0.48932-.40576.728-1.1098,0.728H43.58044V54.78592Zm2.8999,3.86652c0,0.48926-.39386.76373-1.1098,0.76373h-1.7901V57.87674h1.76624c0.7757,0,1.13367.2984,1.13367,0.75183v0.02386Z" fill="#fff"/>
      <path d="M59.26086,52.8646l-3.12134,7.40924L54.8338,58.36606a2.6467,2.6467,0,0,0,1.71838-2.5777V55.7645a2.60811,2.60811,0,0,0-.73987-1.94519,3.69812,3.69812,0,0,0-2.72083-.89508H49.14136v8.35364h2.31512V58.748h1.02637l1.68262,2.52991H58.1391l0.59674-1.5036h3.234l0.59668,1.5036h2.4823L61.49249,52.8646H59.26086Zm-5.0238,3.07892a1.04924,1.04924,0,0,1-1.24115.99048H51.45648V54.91721H52.984a1.04265,1.04265,0,0,1,1.25305,1.00244v0.02386Zm5.179,2.02875,0.94275-2.36292,0.93085,2.36292H59.416Z" fill="#fff"/>
      <rect x="65.32294" y="52.92423" width="2.31512" height="8.35364" fill="#fff"/>
      <polygon points="73.808 57.34 70.371 52.924 68.211 52.924 68.211 61.278 70.502 61.278 70.502 56.695 74.082 61.278 76.099 61.278 76.099 52.924 73.808 52.924 73.808 57.34" fill="#fff"/>
      <path d="M80.43274,56.0748c-1.16949-.26251-1.45593-0.42963-1.45593-0.81152V55.23942c0-.3103.27454-0.537,0.83539-0.537a4.10069,4.10069,0,0,1,2.33905.82336l1.15753-1.63489A5.25781,5.25781,0,0,0,79.87189,52.781c-2.00488,0-3.23407,1.12183-3.23407,2.67316v0.02393c0,1.70648,1.37238,2.20776,3.15057,2.61346,1.14557,0.27448,1.42.45349,1.42,0.81152v0.0238c0,0.35809-.33417.57288-0.96661,0.57288a4.32765,4.32765,0,0,1-2.709-1.00244L76.244,60.03678a5.857,5.857,0,0,0,3.91425,1.38434c2.02875,0,3.37732-1.01434,3.37732-2.72089V58.67637C83.53558,57.113,82.3421,56.49247,80.43274,56.0748Z" fill="#fff"/>
    </g>
  </g>
</svg>

<svg data-name="Layer 1" xmlns="http://www.w3.org/2000/svg" viewBox="0 0 120.80108 130.89788"><defs><radialGradient id="a" cx="113.692" cy="68.825" r="98.86" gradientUnits="userSpaceOnUse"><stop offset=".045" stop-color="#f4793b"/><stop offset="1" stop-color="#fff33e"/></radialGradient><radialGradient id="b" cx="9.363" cy="41.049" r="49.677" gradientUnits="userSpaceOnUse"><stop offset=".258" stop-color="#ee3d85"/><stop offset="1" stop-color="#7b5aa6"/></radialGradient><linearGradient id="c" x1="11.424" y1="37.792" x2="39.916" y2="13.745" gradientUnits="userSpaceOnUse"><stop offset="0" stop-color="#ee3d85"/><stop offset="1" stop-color="#f05872"/></linearGradient><radialGradient id="d" cx="50.068" cy="9.716" r="88.22" gradientUnits="userSpaceOnUse"><stop offset=".134" stop-color="#f05872"/><stop offset="1" stop-color="#f4793b"/></radialGradient></defs><title>logo-4</title><path d="M118.696 72.624a4.671 4.671 0 0 0-4.747-8.026l-86.247 47.29a10.198 10.198 0 1 0 11.161 17.039z" opacity=".997" fill="url(#a)"/><path d="M18.272 29.016A11.24 11.24 0 1 0 6.776 48.101L52.98 67.184a4.326 4.326 0 0 0 4.6-7.212z" fill="url(#b)"/><path d="M52.202.405a8.867 8.867 0 0 0-7.407.983L4.7 28.6a11.241 11.241 0 1 0 13.904 17.64l36.552-30.444A8.888 8.888 0 0 0 52.202.405z" opacity=".999" fill="url(#c)"/><path d="M55.81 2.573A8.887 8.887 0 1 0 43.665 15.54l69.602 56.903a4.664 4.664 0 0 0 6.362-6.768z" opacity=".997" fill="url(#d)"/><path d="M36.905 36.212h51.253v51.253H36.905z"/><path fill="#fff" d="M41.326 77.855h19.22v3.203h-19.22z"/><g fill="#fff"><path d="M44.046 51.115a3.148 3.148 0 0 0 2.291-.847 3.104 3.104 0 0 0 .824-2.351v-5.299h-2.304v5.287a.974.974 0 0 1-.942 1.17 1.691 1.691 0 0 1-1.313-.776l-1.492 1.408a3.411 3.411 0 0 0 2.936 1.408zM54.476 49.003h-4.487v-1.325h4.009v-1.826h-4.009v-1.277h4.427v-1.957h-6.719v8.354h6.779v-1.969zM57.443 50.972h2.315v-6.325h2.506v-2.029h-7.316v2.029h2.495v6.325zM47.137 56.91a1.933 1.933 0 0 0 1.289-1.861v-.024a1.88 1.88 0 0 0-.537-1.36 3.129 3.129 0 0 0-2.28-.74h-4.284v8.353h4.308c1.993 0 3.162-.871 3.162-2.303v-.024a2.027 2.027 0 0 0-1.658-2.04zm-3.557-2.124h1.516c.68 0 1.05.25 1.05.716v.024c0 .49-.406.728-1.11.728H43.58v-1.468zm2.9 3.866c0 .49-.394.764-1.11.764h-1.79v-1.54h1.767c.775 0 1.133.3 1.133.753v.023zM59.26 52.865l-3.12 7.409-1.306-1.908a2.647 2.647 0 0 0 1.718-2.578v-.023a2.608 2.608 0 0 0-.74-1.946 3.698 3.698 0 0 0-2.72-.895h-3.95v8.354h2.314v-2.53h1.027l1.682 2.53h3.974l.597-1.504h3.234l.597 1.504h2.482l-3.557-8.413h-2.231zm-5.023 3.079a1.05 1.05 0 0 1-1.241.99h-1.54v-2.017h1.528a1.043 1.043 0 0 1 1.253 1.003v.024zm5.18 2.028l.942-2.363.93 2.363h-1.873zM65.323 52.924h2.315v8.354h-2.315zM73.808 57.34l-3.437-4.416h-2.16v8.354h2.291v-4.583l3.58 4.583h2.017v-8.354h-2.291v4.416zM80.433 56.075c-1.17-.263-1.456-.43-1.456-.812v-.024c0-.31.274-.537.835-.537a4.1 4.1 0 0 1 2.34.824l1.157-1.635a5.258 5.258 0 0 0-3.437-1.11c-2.005 0-3.234 1.122-3.234 2.673v.024c0 1.707 1.372 2.208 3.15 2.614 1.146.274 1.42.453 1.42.811v.024c0 .358-.334.573-.966.573a4.328 4.328 0 0 1-2.71-1.003l-1.288 1.54a5.857 5.857 0 0 0 3.914 1.384c2.029 0 3.378-1.014 3.378-2.72v-.025c0-1.563-1.194-2.184-3.103-2.601z"/></g></svg>
